flaticon/hand-gestures/tap-48.svg

<svg xmlns="http://www.w3.org/2000/svg" width="32" height="32" viewBox="0 0 24 24">
    <path d="M4.785156.21875C4.710938.0820312 4.570312 0 4.382812 0 4.199219 0 4.058594.0820312 3.984375.21875L2.214844 1.984375C2.03125 2.167969 2.03125 2.445312 2.214844 2.628906 2.398438 2.816406 2.675781 2.816406 2.863281 2.628906L3.921875 1.570312 3.921875 15.230469C3.921875 15.507812 4.109375 15.691406 4.382812 15.691406 4.660156 15.691406 4.847656 15.507812 4.847656 15.230469L4.847656 1.570312 5.90625 2.628906C6 2.722656 6.09375 2.769531 6.230469 2.769531 6.371094 2.769531 6.460938 2.722656 6.554688 2.628906 6.738281 2.445312 6.738281 2.167969 6.554688 1.984375zM15 0C11.167969 0 8.078125 3.09375 8.078125 6.921875L8.078125 17.078125C8.078125 20.90625 11.167969 24 15 24 18.832031 24 21.921875 20.90625 21.921875 17.078125L21.921875 6.921875C21.921875 3.09375 18.832031 0 15 0zM21 17.078125C21 20.398438 18.324219 23.078125 15 23.078125 11.675781 23.078125 9 20.398438 9 17.078125L9 6.921875C9 3.601562 11.675781.921875 15 .921875 18.324219.921875 21 3.601562 21 6.921875zM21 17.078125"/>
    <path d="M15 1.847656C12.183594 1.847656 9.921875 4.109375 9.921875 6.921875L9.921875 12 20.078125 12 20.078125 6.921875C20.078125 4.109375 17.816406 1.847656 15 1.847656zM19.152344 11.078125L10.847656 11.078125 10.847656 6.921875C10.847656 4.617188 12.691406 2.769531 15 2.769531 17.308594 2.769531 19.152344 4.617188 19.152344 6.921875zM19.617188 15.230469L10.382812 15.230469C10.109375 15.230469 9.921875 15.414062 9.921875 15.691406 9.921875 15.96875 10.109375 16.152344 10.382812 16.152344L19.617188 16.152344C19.890625 16.152344 20.078125 15.96875 20.078125 15.691406 20.078125 15.414062 19.890625 15.230469 19.617188 15.230469zM19.617188 17.078125L10.382812 17.078125C10.109375 17.078125 9.921875 17.261719 9.921875 17.539062 9.921875 17.816406 10.109375 18 10.382812 18L19.617188 18C19.890625 18 20.078125 17.816406 20.078125 17.539062 20.078125 17.261719 19.890625 17.078125 19.617188 17.078125zM19.617188 17.078125"/>
</svg>

<svg xmlns="http://www.w3.org/2000/svg" width="32" height="32" viewBox="0 0 24 24">
    <path d="M4.785.219C4.711.082 4.57 0 4.383 0c-.184 0-.324.082-.399.219l-1.77 1.765a.446.446 0 0 0 0 .645c.184.187.462.187.65 0L3.921 1.57v13.66c0 .278.187.461.46.461.278 0 .466-.183.466-.46V1.57l1.058 1.058c.094.094.188.14.324.14.141 0 .23-.046.325-.14a.446.446 0 0 0 0-.645zm0 0M15 0a6.913 6.913 0 0 0-6.922 6.922v10.156A6.913 6.913 0 0 0 15 24a6.913 6.913 0 0 0 6.922-6.922V6.922A6.913 6.913 0 0 0 15 0zm6 17.078c0 3.32-2.676 6-6 6s-6-2.68-6-6V6.922c0-3.32 2.676-6 6-6s6 2.68 6 6zm0 0"/>
    <path d="M15 1.848a5.062 5.062 0 0 0-5.078 5.074V12h10.156V6.922A5.062 5.062 0 0 0 15 1.848zm4.152 9.23h-8.304V6.922A4.135 4.135 0 0 1 15 2.77a4.135 4.135 0 0 1 4.152 4.152zm0 0M19.617 15.23h-9.234c-.274 0-.461.184-.461.461 0 .278.187.461.46.461h9.235c.274 0 .461-.183.461-.46 0-.278-.187-.462-.46-.462zm0 0M19.617 17.078h-9.234c-.274 0-.461.184-.461.461s.187.461.46.461h9.235c.274 0 .461-.184.461-.46 0-.278-.187-.462-.46-.462zm0 0"/>
</svg>
